X: 3862
T: Black Rock
R: slip jig
M: 9/8
K: Adorian
|:e2f d2e c2A|B2e e2A Bcd|e2f d2e c2A|B2G G2A Bcd:|
|:c2A ABA c2A|B2e e2A Bcd|c2A ABA c2A|B2G G2A Bcd:|

